ion/cloud-download.svg

<svg viewBox="0 0 512 512" xmlns="http://www.w3.org/2000/svg"><g><path d="M472.7 189.5c-13.26-8.43-29.83-14.56-48.08-17.93v0c-6.29-1.21-11.26-6.04-12.62-12.29 -7.86-34.51-24.6-64.13-49.15-86.58C334.15 46.45 296.21 32 256 32c-35.35 0-68 11.08-94.37 32h-.001c-17.81 14.19-32.16 32.26-41.95 52.83v0c-2.22 4.7-6.57 8.04-11.68 8.97 -27.13 4.9-50.53 14.68-68.41 28.7C13.69 174.83-.01 203.56-.01 237.6c0 67.4 55.93 114.4 136 114.4h104V224.45c0-8.61 6.62-16 15.23-16.43v0c8.82-.43 16.32 6.38 16.75 15.21 .01.25.01.51.01.76v128h124c72.64 0 116-34.24 116-91.6 0-30.05-13.59-54.57-39.3-70.9Z"/><path d="M240 425.42l-36.7-36.64h-.001c-6.35-6.15-16.48-6-22.63.35 -6.03 6.21-6.02 16.09.02 22.29l64 63.89v0c6.24 6.23 16.35 6.23 22.6 0l64-63.89v0c6.16-6.34 6.02-16.47-.31-22.63 -6.21-6.04-16.09-6.05-22.3-.03l-36.7 36.64v-73.42h-32Z"/></g></svg>

<svg xmlns="http://www.w3.org/2000/svg" width="512" height="512" viewBox="0 0 512 512"><path d="M472.7,189.5c-13.26-8.43-29.83-14.56-48.08-17.93A16,16,0,0,1,412,159.28c-7.86-34.51-24.6-64.13-49.15-86.58C334.15,46.45,296.21,32,256,32c-35.35,0-68,11.08-94.37,32a150.13,150.13,0,0,0-41.95,52.83A16.05,16.05,0,0,1,108,125.8c-27.13,4.9-50.53,14.68-68.41,28.7C13.7,174.83,0,203.56,0,237.6,0,305,55.93,352,136,352H240V224.45c0-8.61,6.62-16,15.23-16.43A16,16,0,0,1,272,224V352H396c72.64,0,116-34.24,116-91.6C512,230.35,498.41,205.83,472.7,189.5Z"/><path d="M240,425.42l-36.7-36.64a16,16,0,0,0-22.6,22.65l64,63.89a16,16,0,0,0,22.6,0l64-63.89a16,16,0,0,0-22.6-22.65L272,425.42V352H240Z"/></svg>
